cdn/fa/svgs/sharp-light/down-from-line.svg

<svg xmlns="http://www.w3.org/2000/svg" viewBox="0 0 384 512"><!--! Font Awesome Pro 6.5.2 by @fontawesome - https://fontawesome.com License - https://fontawesome.com/license (Commercial License) Copyright 2024 Fonticons, Inc. --><path d="M240 272l0 32 32 0 48 0 0 17.7L192 436.9 64 321.7 64 304l48 0 32 0 0-32 0-112 96 0 0 112zm112 0l-32 0-16 0-32 0 0-32 0-80 0-32-32 0-96 0-32 0 0 32 0 80 0 32-32 0-16 0-32 0 0 32 0 32L192 480 352 336l0-32 0-32zM16 32L0 32 0 64l16 0 352 0 16 0 0-32-16 0L16 32z"/></svg>

<svg xmlns="http://www.w3.org/2000/svg" viewBox="0 0 384 512"><!--! Font Awesome Pro 6.5.1 by @fontawesome - https://fontawesome.com License - https://fontawesome.com/license (Commercial License) Copyright 2023 Fonticons, Inc. --><path d="M240 272v32h32 48v17.7L192 436.9 64 321.7V304h48 32V272 160h96V272zm112 0H320 304 272V240 160 128H240 144 112v32 80 32H80 64 32v32 32L192 480 352 336V304 272zM16 32H0V64H16 368h16V32H368 16z"/></svg>
